X:1
T:Limerick Rake
M:6/8
L:1/8
K:G
 z4 z E| EGF EDE| GAB e2 e| dBB BAF| AFE D2 D| EGF EDE| GAB e2 e| dBG AFD|\
 E3 E2 B| Bee efe| dB^c d2 d| eBB BAF| AFE D2 D/2D/2| EGF EDE| GAB e2 e/2e/2|\
 dBG AFD| E3 E2 z|
